X:247
T:The Wood Goat
C:Michel-A Roy
R:jig
M:6/8
L:1/8
K:Am
aAA gAA | ega A3 | ABc d2d | Bcd e2e | aAA gAA | ega A3 | ABc d2A | BcB A2A |
aAA gAA | ega A3 | ABc d2d | Bcd e2e | aAA gAA | ega A3 | ABc GAB | cGE A3 |:
AEA cAc | ece a2e | abc'b2e | gbg e2A | AEA cAc | ece a2e | abc' b2e | gab a3 :|
